icon/ir/small-lamp-alt.svg

<svg viewBox="0 0 24 24" stroke-width="1.5" fill="none" xmlns="http://www.w3.org/2000/svg" height="1em" width="1em">
  <path d="M6.87172 3.42759L4.23172 12.2276C4.11623 12.6126 4.4045 13 4.80642 13L19.1936 13C19.5955 13 19.8838 12.6126 19.7683 12.2276L17.1283 3.42759C17.0521 3.1738 16.8185 3 16.5536 3L7.44642 3C7.18145 3 6.94786 3.1738 6.87172 3.42759Z" stroke="currentColor" stroke-linecap="round" stroke-linejoin="round"/>
  <path d="M8 15L8 13" stroke="currentColor" stroke-linecap="round" stroke-linejoin="round"/>
  <path d="M8 21H16M12 15L12 21" stroke="currentColor" stroke-linecap="round" stroke-linejoin="round"/>
</svg>

<svg width="24" height="24" stroke-width="1.5" fill="none" xmlns="http://www.w3.org/2000/svg"><path d="m6.872 3.428-2.64 8.8a.6.6 0 0 0 .574.772h14.388a.6.6 0 0 0 .574-.772l-2.64-8.8A.6.6 0 0 0 16.554 3H7.446a.6.6 0 0 0-.574.428ZM8 15v-2M8 21h8m-4-6v6" stroke="currentColor" stroke-linecap="round" stroke-linejoin="round"/></svg>
